X:1
T:O to Be Like Thee!
T:William James Kirkpatrick
T:O to Be Like Thee!
T:Public Domain
T:Public Domain
T:Public Domain
C:William James Kirkpatrick
Z:Public Domain
%%score ( 1 2 ) 3
L:1/8
M:9/8
K:D
V:1 treble 
V:2 treble 
V:3 bass 
V:1
 D[DF][FA] | [FA]3 [FA]3 [^EB][Ec][Ed] | [FA]3 [DF]3 D[DF][FA] | [FA]3 [DF]3 [DF][EG][DF] | %4
w: 1.~O to be|Thee! bless- èd Re- deem-|er, This is my con-|stant long- ing and prayer;|
w: 2.~O to be|Thee! full of com- pas-|sion, Lov- ing, for- giv-|ing, ten- der and kind,|
w: 3.~O to be|Thee! low- ly in spir-|it, Ho- ly and harm-|less, pa- tient and brave;|
w: 4.~O to be|Thee! Lord, I am com-|ing Now to re- ceive|a- noint- ing di- vine;|
w: 5.~O to be|Thee! while I am plead-|ing, Pour out Thy Spir-|it, fill with Thy love;|
 [CE]6 D[DF][FA] | [FA]3 [FA]3 [^EB][Ec][Ed] | [FA]3 [DF]3 [FA][EG][DF] | %7
w: Glad- ly I’ll for-|feit all of earth’s trea-|sures, Je- sus, Thy per-|
w: Help- ing the help-|less, cheer- ing the faint-|ing, Seek- ing the wan-|
w: Meek- ly en- dur-|ing cru- el re- proach-|es, Will- ing to suf-|
w: All that I am|and have I am bring-|ing, Lord, from this mo-|
w: Make me a tem-|ple meet for Thy dwell-|ing, Fit me for life|
 [CE]3 [^Gd]3 [Gd][Gc][GB] | (E3 G3) ||"^Refrain" [FA][^E^G][FA] | [GB]3 [DG]3 [Bd][Ac][GB] | %11
w: fect like- ness to wear.||||
w: dering sin- ner to find.||||
w: fer o- thers to save.||||
w: ment all shall be Thine.||||
w: and hea- ven a- bove.||||
 [GB]3 [FA]3 [FA][EG][DF] | [EG]3 [EG]3 [GB][FA][EG] | [DF]6 [FA][^E^G][FA] | %14
w: |||
w: |||
w: |||
w: |||
w: |||
 [GB]3 [DG]3 [Bd][Ac][GB] | [GB]3 [FA]3 DFA | A3 [DF]3 [DF][A,D][A,E] | [A,D]6 |] %18
w: ||||
w: ||||
w: ||||
w: ||||
w: ||||
V:2
 D x2 | x9 | x9 | x9 | x9 | x9 | x9 | x9 | A6 || x3 | x9 | x9 | x9 | x9 | x9 | x9 | x9 | x6 |] %18
w: like||||||||||||||||||
w: like||||||||||||||||||
w: like||||||||||||||||||
w: like||||||||||||||||||
w: like||||||||||||||||||
V:3
 [D,F,][D,A,][D,D] | [D,D]3 [D,A,]3 [D,^G,][D,G,][D,G,] | [D,A,]3 [D,A,]3 [D,F,][D,A,][D,D] | %3
w: ~ ~ ~|~ ~ ~ ~ ~|~ ~ ~ ~ ~|
 [D,D]3 [D,A,]3 [D,A,][C,A,][D,A,] | [A,,A,]6 [D,F,][D,A,][D,D] | %5
w: ~ ~ ~ ~ ~|~ ~ ~ ~|
 [D,D]3 [D,A,]3 [D,^G,][D,G,][D,G,] | [D,A,]3 [D,A,]3 [D,A,][D,A,][D,A,] | %7
w: ~ ~ ~ ~ ~|~ ~ ~ ~ ~|
 [E,A,]3 [E,B,]3 [E,B,][E,C][E,D] | [A,,C]6 || [D,D][D,D][D,D] | [G,D]3 [G,B,]3 [G,D][G,D][G,D] | %11
w: ~ ~ ~ ~ ~|~|O to be|like Thee! O to be|
 [D,D]3 [D,D]3 [D,A,][D,A,][D,A,] | [A,,C]3 [A,,C]3 [A,,A,][B,,A,][C,A,] | %13
w: like Thee, Bless- èd Re-|deem- er, pure as Thou|
 [D,A,]6 [D,D][D,D][D,D] | [G,D]3 [G,B,]3 [G,D][G,D][G,D] | [D,D]3 [D,D]3 D,F,A, | %16
w: art; Come in Thy|sweet- ness, come in Thy|full- ness; Stamp Thine own|
 A,3 A,3 [A,,A,][A,,F,][A,,G,] | [D,F,]6 |] %18
w: im- age deep on my|heart.|

